icons/mini/folder.svg

<svg width="20" height="20" viewBox="0 0 20 20" fill="none" xmlns="http://www.w3.org/2000/svg">
<path d="M3.75 3C2.7835 3 2 3.7835 2 4.75V8.01091C2.50515 7.6875 3.10568 7.5 3.75 7.5H16.25C16.8943 7.5 17.4949 7.6875 18 8.01091V6.75C18 5.7835 17.2165 5 16.25 5H11.4142C11.3479 5 11.2843 4.97366 11.2374 4.92678L9.82322 3.51256C9.49503 3.18437 9.04992 3 8.58579 3H3.75Z" fill="#0F172A"/>
<path d="M3.75 9C2.7835 9 2 9.7835 2 10.75V15.25C2 16.2165 2.7835 17 3.75 17H16.25C17.2165 17 18 16.2165 18 15.25V10.75C18 9.7835 17.2165 9 16.25 9H3.75Z" fill="#0F172A"/>
</svg>

<svg xmlns="http://www.w3.org/2000/svg" viewBox="0 0 20 20" fill="currentColor" aria-hidden="true" data-slot="icon">
  <path d="M3.75 3A1.75 1.75 0 0 0 2 4.75v3.26a3.235 3.235 0 0 1 1.75-.51h12.5c.644 0 1.245.188 1.75.51V6.75A1.75 1.75 0 0 0 16.25 5h-4.836a.25.25 0 0 1-.177-.073L9.823 3.513A1.75 1.75 0 0 0 8.586 3H3.75ZM3.75 9A1.75 1.75 0 0 0 2 10.75v4.5c0 .966.784 1.75 1.75 1.75h12.5A1.75 1.75 0 0 0 18 15.25v-4.5A1.75 1.75 0 0 0 16.25 9H3.75Z"/>
</svg>
